images_sukapura_svg/cmd/sc_autopilotmenu.svg

<svg viewBox="0 0 16 16" xmlns="http://www.w3.org/2000/svg" xmlns:xlink="http://www.w3.org/1999/xlink"><filter id="a" color-interpolation-filters="sRGB" height="1.076353" width="2.263014" x="-.631507" y="-.038176"><feGaussianBlur stdDeviation=".13498718"/></filter><linearGradient id="b" gradientUnits="userSpaceOnUse" x1="6.482425" x2="10.515625" y1="3.500001" y2="3.500001"><stop offset="0" stop-color="#eee"/><stop offset=".12832868" stop-color="#eee"/><stop offset=".2677961" stop-color="#fff"/><stop offset=".6242128" stop-color="#fff"/><stop offset=".875" stop-color="#eee"/><stop offset="1" stop-color="#eee"/></linearGradient>




     /&amp;amp;gt;
 <path d="m5 0h4l-3 3h1l-7 6 3-5h-2z" fill="#ff9500" fill-rule="evenodd"/><g transform="matrix(.70710678 .70710678 -.70710678 .70710678 8.572739 -3.489392)"><path d="m6 7v5.410156c-.000028.0042-.00195.0076-.00195.01172v3.363281c0 .0042.00193.0076.00195.01172v.203123h.03125c.084332.680185.5280046 1.207031 1.0898438 1.207031h2.7558593c.5618389 0 1.0055109-.526846 1.0898439-1.207031h.033203v-.214844-3.363281-5.421875z" fill="#0e0f0f"/><path d="m6.4869905 7.5138645h.5130095v8.8838835h-.5130095z" fill="#808080" filter="url(#a)"/><path d="m7.1210938 0c-.5618393 0-1.0055118.52684625-1.0898438 1.2070312h-.03125v.203125c-.00002.00412-.00195.00752-.00195.011719v3.3632812c0 .00412.00193.00752.00195.011719v2.2031246h5v-2.2148438-3.3632812-.2148438h-.0332c-.084336-.68018495-.528008-1.2070312-1.0898469-1.2070312z" fill="#98989d"/><path d="m5.9667969.82226562c-.0004031.0499729-.00186.25764568-.00195.44921878-.010234.032093-.00655.025225 0 .011719-.0000016.00336.0000014.00444 0 .00781-.00462.018847-.00204.01287 0 .00977-.000004.010159.000003.013174 0 .023438-.0000006.00171.0000004.00219 0 .00391-.00014.490124.00214.8829369.00391.2226562-.0001051-.00232.0000653-.0022 0-.00391-.0002321-.00608-.00189-.01032-.00195-.013672-.0001654-.00859.0000698-.017301 0-.027344-.0001397-.020085 0-.047154 0-.083984a.51567656.51567656 0 0 1 .00195-.011719.51567656.51567656 0 0 1 0-.013672c-.0001413-.068238.0001316-.025625 0-.080078.0004728.0004518.00734-.029255.00977-.037109-.00811.059713-.00693.065842.017578-.060547.00217-.011199.00135-.00213.00391-.015625.0003756-.00149-.0003826-.0004284 0-.00195.0003097-.00164-.0003154-.0002832 0-.00195.0003161-.00167-.0003091-.0003131 0-.00195.0002308-.0006091.00172.0006141.00195 0 .0005564-.00147-.0005666-.0004551 0-.00195a.51567656.51567656 0 0 1 0-.00195c.00127-.00508.0007769-.00111.00195-.00586.046483-.1494582.037566-.1332812.015625-.074219.00439-.023345.00534-.034673-.00586.00195.00347-.026442.00439-.033051-.00586.00977.00427-.049381-.0005672-.025641-.013672.054687-.0004319.00265-.00152.00319-.00195.00586-.0009736.00344-.000983.00436-.00195.00781-.0001357.0008476.0001354.0011 0 .00195-.0001354.0008483.0001351.0011 0 .00195-.00171.00608-.00224.00766-.00391.013672-.00779.022891-.011649.034384-.017578.052734-.0006901-.253082-.00156-.49034749-.00195-.44140628zm1.1542969.17773438c.1106478 0-.055995-.005947-.097656.3300781l-.027344-.00391a.51567656.51567656 0 0 1 .0039062.050785v.033203a.51567656.51567656 0 0 1 0 .00391c-.0001906.039254.0002399.068479 0 .089844-.0001199.010683-.00178.019055-.00195.027344-.000089.00414.0002757.0086 0 .015625-.0001379.00351.0006508.00814 0 .017578v3.0820313c.0004771.00768-.0001196.012404 0 .015625.0002391.00644-.0000861.00955 0 .013672.0001722.00824.00183.016631.00195.027344.0002326.020959-.0001806.050529 0 .087891.000004.0008303-.000004.00111 0 .00195a.51567656.51567656 0 0 1 0 .00391v1.2031196h3v-1.2148438-3.3632812-.0390625a.51567656.51567656 0 0 1 .002-.056641l-.027344.00391c-.0417089-.336033-.2083486-.3300815-.0977029-.3300815zm3.8359372.060547c-.0067-.013385.0029.023606.03711.1308593a.51567656.51567656 0 0 1 .002.00195.51567656.51567656 0 0 1 0 .00195c.000395.00156-.000405.000359 0 .00195.000091.0003593.0019-.0003609.002 0 .000303.0016-.00031.0003167 0 .00195.00031.00164-.000317.0002831 0 .00195.000476.00148-.000468.0005024 0 .00195.0031.00977.0011.00326.0039.011719.02824.1460963.02706.1254886.01758.056641.01051.035104.0129.045047.0039 0 .01029.027431.01721.042125.0078.00586.01479.031138.0062.0000745-.02148-.078125-.000424-.00268-.0015-.00318-.002-.00586-.01399-.087814-.02214-.1211019-.01758-.066406-.0105-.043266-.0093-.036368-.0059-.00977-.0122-.038941-.01031-.025277-.0039.00586-.0082-.021677-.02014-.055932-.02344-.0625zm-4.9804685.2109374c-.00258.01298-.00634.028533-.00781.037109-.0000287-.01167.0000282-.00654 0-.017578.0009647-.00214.00605-.014714.00781-.019531zm-.00977 2.9355468c-.00156.1935987-.00111 2.0689882.00195.6113282a.51567656.51567656 0 0 1 -.00195-.033203c0-.037566-.0001429-.065845 0-.085937.0000714-.010046-.000178-.016574 0-.025391.0000649-.00322.00172-.00969.00195-.015625-.0000092-.00347.0000092-.00245 0-.00586-.0006988-.2587588-.00155-.4946869-.00195-.4453126z" fill="url(#b)"/></g></svg>

<?xml version="1.0" encoding="UTF-8" standalone="no"?>
<svg
   xmlns:dc="http://purl.org/dc/elements/1.1/"
   xmlns:cc="http://creativecommons.org/ns#"
   xmlns:rdf="http://www.w3.org/1999/02/22-rdf-syntax-ns#"
   xmlns:svg="http://www.w3.org/2000/svg"
   xmlns="http://www.w3.org/2000/svg"
   xmlns:xlink="http://www.w3.org/1999/xlink"
   xmlns:sodipodi="http://sodipodi.sourceforge.net/DTD/sodipodi-0.dtd"
   xmlns:inkscape="http://www.inkscape.org/namespaces/inkscape"
   viewBox="0 0 16 16"
   version="1.1"
   id="svg8"
   sodipodi:docname="sc_autopilotmenu.svg"
   inkscape:version="0.92.3 (2405546, 2018-03-11)"
   inkscape:export-filename="/home/rizmut/Documents/Rizmut/Github/libreoffice-style-sukapura/images_sukapura/cmd/sc_autopilotmenu.png"
   inkscape:export-xdpi="96"
   inkscape:export-ydpi="96"><metadata
   id="metadata14">
  <rdf:RDF>
    <cc:Work
       rdf:about="">
      <dc:format>image/svg+xml</dc:format>
      <dc:type
         rdf:resource="http://purl.org/dc/dcmitype/StillImage" />
      <dc:title></dc:title>
    </cc:Work>
  </rdf:RDF>
</metadata>
<defs
   id="defs12">
  <linearGradient
     inkscape:collect="always"
     id="linearGradient887">
    <stop
       style="stop-color:#eeeeee;stop-opacity:1;"
       offset="0"
       id="stop883" />
    <stop
       id="stop891"
       offset="0.12832868"
       style="stop-color:#eeeeee;stop-opacity:1;" />
    <stop
       style="stop-color:#ffffff;stop-opacity:1"
       offset="0.2677961"
       id="stop897" />
    <stop
       style="stop-color:#ffffff;stop-opacity:1"
       offset="0.6242128"
       id="stop893" />
    <stop
       id="stop895"
       offset="0.875"
       style="stop-color:#eeeeee;stop-opacity:1;" />
    <stop
       style="stop-color:#eeeeee;stop-opacity:1"
       offset="1"
       id="stop885" />
  </linearGradient>
  <clipPath
     clipPathUnits="userSpaceOnUse"
     id="clipPath834">
    <rect
       style="opacity:1;fill:#98989d;fill-opacity:1;stroke:#c20618;stroke-width:1;stroke-linecap:round;stroke-linejoin:round;stroke-miterlimit:4;stroke-dasharray:none;stroke-opacity:1"
       id="rect836"
       width="69.423729"
       height="65.627121"
       x="-1088.5424"
       y="-635.93219" />
  </clipPath>
  <filter
     inkscape:collect="always"
     style="color-interpolation-filters:sRGB"
     id="filter868"
     x="-0.6315072"
     width="2.2630144"
     y="-0.038176296"
     height="1.0763526">
    <feGaussianBlur
       inkscape:collect="always"
       stdDeviation="0.13498718"
       id="feGaussianBlur870" />
  </filter>
  <linearGradient
     inkscape:collect="always"
     xlink:href="#linearGradient887"
     id="linearGradient889"
     x1="6.4824248"
     y1="3.5000011"
     x2="10.515625"
     y2="3.5000011"
     gradientUnits="userSpaceOnUse" />
</defs>
<sodipodi:namedview
   pagecolor="#ffffff"
   bordercolor="#666666"
   borderopacity="1"
   objecttolerance="10"
   gridtolerance="10"
   guidetolerance="10"
   inkscape:pageopacity="0"
   inkscape:pageshadow="2"
   inkscape:window-width="1366"
   inkscape:window-height="685"
   id="namedview10"
   showgrid="true"
   inkscape:zoom="16"
   inkscape:cx="8.7990962"
   inkscape:cy="10.133895"
   inkscape:window-x="0"
   inkscape:window-y="0"
   inkscape:window-maximized="1"
   inkscape:current-layer="svg8">
  <inkscape:grid
     type="xygrid"
     id="grid838" />
</sodipodi:namedview>




     /&amp;gt;
 <path
   d="m5 0h4l-3 3h1l-7 6 3-5h-2z"
   fill="#eac282"
   fill-rule="evenodd"
   id="path6"
   style="fill:#ff9500;fill-opacity:1" />
<g
   id="g903"
   transform="rotate(45,8.4984385,8.6035155)">
  <path
     sodipodi:nodetypes="ccsscccsscccccc"
     inkscape:connector-curvature="0"
     id="path4"
     d="m 6,7 v 5.410156 c -2.8e-5,0.0042 -0.00195,0.0076 -0.00195,0.01172 v 3.363281 c 0,0.0042 0.00193,0.0076 0.00195,0.01172 V 16 h 0.03125 c 0.084332,0.680185 0.5280046,1.207031 1.0898438,1.207031 h 2.7558593 c 0.5618389,0 1.0055109,-0.526846 1.0898439,-1.207031 H 11 V 15.785156 12.421875 7 Z"
     style="fill:#0e0f0f;fill-opacity:1" />
  <path
     id="rect846"
     d="M 6.4869905,7.5138645 H 7 V 16.397748 H 6.4869905 Z"
     style="opacity:1;fill:#808080;fill-opacity:1;stroke:none;stroke-width:0.58229345;stroke-linecap:round;stroke-linejoin:round;stroke-miterlimit:4;stroke-dasharray:none;stroke-opacity:1;filter:url(#filter868)"
     inkscape:connector-curvature="0" />
  <path
     id="path873"
     d="M 7.1210938,0 C 6.5592545,0 6.115582,0.52684625 6.03125,1.2070312 H 6 v 0.203125 c -2e-5,0.00412 -0.00195,0.00752 -0.00195,0.011719 v 3.3632812 c 0,0.00412 0.00193,0.00752 0.00195,0.011719 V 7 h 5 V 4.7851562 1.421875 1.2070312 h -0.0332 C 10.882464,0.52684625 10.438792,0 9.8769531,0 Z"
     style="fill:#98989d;fill-opacity:1"
     inkscape:connector-curvature="0" />
  <path
     sodipodi:type="inkscape:offset"
     inkscape:radius="-0.515625"
     inkscape:original="M 7.1210938 0.484375 C 6.8620589 0.484375 6.5742842 0.7629517 6.5117188 1.2675781 A 0.48442344 0.48442344 0 0 1 6.484375 1.3769531 L 6.484375 1.4101562 A 0.48442344 0.48442344 0 0 1 6.484375 1.4121094 C 6.4836258 1.5664427 6.4824219 1.5663332 6.4824219 1.421875 L 6.4824219 4.7851562 C 6.4824219 4.6377679 6.483655 4.6433072 6.484375 4.7949219 A 0.48442344 0.48442344 0 0 1 6.484375 4.796875 L 6.484375 6.515625 L 10.515625 6.515625 L 10.515625 4.7851562 L 10.515625 1.421875 L 10.515625 1.3828125 A 0.48442344 0.48442344 0 0 1 10.486328 1.2675781 C 10.423762 0.76294827 10.135987 0.484375 9.8769531 0.484375 L 7.1210938 0.484375 z "
     style="fill:url(#linearGradient889);fill-opacity:1"
     id="path878"
     d="m 5.9667969,0.82226562 c -4.031e-4,0.0499729 -0.00186,0.25764568 -0.00195,0.44921878 -0.010234,0.032093 -0.00655,0.025225 0,0.011719 -1.6e-6,0.00336 1.4e-6,0.00444 0,0.00781 -0.00462,0.018847 -0.00204,0.01287 0,0.00977 -4e-6,0.010159 3e-6,0.013174 0,0.023438 -6e-7,0.00171 4e-7,0.00219 0,0.00391 -1.4e-4,0.490124 0.00214,0.8829369 0.00391,0.2226562 -1.051e-4,-0.00232 6.53e-5,-0.0022 0,-0.00391 -2.321e-4,-0.00608 -0.00189,-0.01032 -0.00195,-0.013672 -1.654e-4,-0.00859 6.98e-5,-0.017301 0,-0.027344 -1.397e-4,-0.020085 0,-0.047154 0,-0.083984 a 0.51567656,0.51567656 0 0 1 0.00195,-0.011719 0.51567656,0.51567656 0 0 1 0,-0.013672 c -1.413e-4,-0.068238 1.316e-4,-0.025625 0,-0.080078 4.728e-4,4.518e-4 0.00734,-0.029255 0.00977,-0.037109 -0.00811,0.059713 -0.00693,0.065842 0.017578,-0.060547 0.00217,-0.011199 0.00135,-0.00213 0.00391,-0.015625 3.756e-4,-0.00149 -3.826e-4,-4.284e-4 0,-0.00195 3.097e-4,-0.00164 -3.154e-4,-2.832e-4 0,-0.00195 3.161e-4,-0.00167 -3.091e-4,-3.131e-4 0,-0.00195 2.308e-4,-6.091e-4 0.00172,6.141e-4 0.00195,0 5.564e-4,-0.00147 -5.666e-4,-4.551e-4 0,-0.00195 a 0.51567656,0.51567656 0 0 1 0,-0.00195 c 0.00127,-0.00508 7.769e-4,-0.00111 0.00195,-0.00586 0.046483,-0.1494582 0.037566,-0.1332812 0.015625,-0.074219 0.00439,-0.023345 0.00534,-0.034673 -0.00586,0.00195 0.00347,-0.026442 0.00439,-0.033051 -0.00586,0.00977 0.00427,-0.049381 -5.672e-4,-0.025641 -0.013672,0.054687 -4.319e-4,0.00265 -0.00152,0.00319 -0.00195,0.00586 -9.736e-4,0.00344 -9.83e-4,0.00436 -0.00195,0.00781 -1.357e-4,8.476e-4 1.354e-4,0.0011 0,0.00195 -1.354e-4,8.483e-4 1.351e-4,0.0011 0,0.00195 -0.00171,0.00608 -0.00224,0.00766 -0.00391,0.013672 -0.00779,0.022891 -0.011649,0.034384 -0.017578,0.052734 -6.901e-4,-0.253082 -0.00156,-0.49034749 -0.00195,-0.44140628 z M 7.1210938,1 c 0.1106478,0 -0.055995,-0.005947 -0.097656,0.3300781 l -0.027344,-0.00391 A 0.51567656,0.51567656 0 0 1 7,1.3769531 v 0.033203 a 0.51567656,0.51567656 0 0 1 0,0.00391 c -1.906e-4,0.039254 2.399e-4,0.068479 0,0.089844 -1.199e-4,0.010683 -0.00178,0.019055 -0.00195,0.027344 -8.9e-5,0.00414 2.757e-4,0.0086 0,0.015625 -1.379e-4,0.00351 6.508e-4,0.00814 0,0.017578 v 3.0820313 c 4.771e-4,0.00768 -1.196e-4,0.012404 0,0.015625 2.391e-4,0.00644 -8.61e-5,0.00955 0,0.013672 1.722e-4,0.00824 0.00183,0.016631 0.00195,0.027344 2.326e-4,0.020959 -1.806e-4,0.050529 0,0.087891 4e-6,8.303e-4 -4e-6,0.00111 0,0.00195 a 0.51567656,0.51567656 0 0 1 0,0.00391 V 6 h 3 V 4.7851562 1.421875 1.3828125 a 0.51567656,0.51567656 0 0 1 0.002,-0.056641 l -0.027344,0.00391 C 9.9329471,0.9940485 9.7663074,1 9.8769531,1 Z m 3.8359372,0.060547 c -0.0067,-0.013385 0.0029,0.023606 0.03711,0.1308593 a 0.51567656,0.51567656 0 0 1 0.002,0.00195 0.51567656,0.51567656 0 0 1 0,0.00195 c 3.95e-4,0.00156 -4.05e-4,3.59e-4 0,0.00195 9.1e-5,3.593e-4 0.0019,-3.609e-4 0.002,0 3.03e-4,0.0016 -3.1e-4,3.167e-4 0,0.00195 3.1e-4,0.00164 -3.17e-4,2.831e-4 0,0.00195 4.76e-4,0.00148 -4.68e-4,5.024e-4 0,0.00195 0.0031,0.00977 0.0011,0.00326 0.0039,0.011719 0.02824,0.1460963 0.02706,0.1254886 0.01758,0.056641 0.01051,0.035104 0.0129,0.045047 0.0039,0 0.01029,0.027431 0.01721,0.042125 0.0078,0.00586 0.01479,0.031138 0.0062,7.45e-5 -0.02148,-0.078125 -4.24e-4,-0.00268 -0.0015,-0.00318 -0.002,-0.00586 -0.01399,-0.087814 -0.02214,-0.1211019 -0.01758,-0.066406 -0.0105,-0.043266 -0.0093,-0.036368 -0.0059,-0.00977 -0.0122,-0.038941 -0.01031,-0.025277 -0.0039,0.00586 -0.0082,-0.021677 -0.02014,-0.055932 -0.02344,-0.0625 z M 5.9765625,1.2714844 c -0.00258,0.01298 -0.00634,0.028533 -0.00781,0.037109 -2.87e-5,-0.01167 2.82e-5,-0.00654 0,-0.017578 9.647e-4,-0.00214 0.00605,-0.014714 0.00781,-0.019531 z m -0.00977,2.9355468 c -0.00156,0.1935987 -0.00111,2.0689882 0.00195,0.6113282 a 0.51567656,0.51567656 0 0 1 -0.00195,-0.033203 c 0,-0.037566 -1.429e-4,-0.065845 0,-0.085937 7.14e-5,-0.010046 -1.78e-4,-0.016574 0,-0.025391 6.49e-5,-0.00322 0.00172,-0.00969 0.00195,-0.015625 -9.2e-6,-0.00347 9.2e-6,-0.00245 0,-0.00586 -6.988e-4,-0.2587588 -0.00155,-0.4946869 -0.00195,-0.4453126 z" />
</g>
</svg>
